X: 3615
T:New Rigged Ship, The
R:Jig
O:Scotland
M:6/8
L:1/8
K:D
A|d2d def|d2d def|ecA ABA|ecA ABc|!
d2d def||d2d def|ecA ABc|d3 d2:|!
f|a2f a2|d2d dfa||b2g b2g|e2e efg|!
a2f a2f|d2d def|ecA ABc|d3 d2:|!
